X:94
T:???
M:4/4
L:1/8
K:G
~G3A BA{B}A2|bgag egdB|~G3A BAGE|~A3G EGdB|~G3A BA{B}A2|bgag egdB|
~G3A B AGE|~A3G EGd2|| ~g3d ed (3Bcd|g2ef gaba|ge{a}ed ed
(3Bcd|ea{b}ag agef| ~g3d ed (3Bcd|g2ef gaba|~g3g (3aba ge|d2bg egdB||


